images/Logo.svg

<svg width="95" height="26" viewBox="0 0 95 26" fill="none" xmlns="http://www.w3.org/2000/svg">
<mask id="path-1-outside-1_2_219" maskUnits="userSpaceOnUse" x="19.1599" y="4.76001" width="75" height="16" fill="black">
<rect fill="white" x="19.1599" y="4.76001" width="75" height="16"/>
<path d="M25.1399 20.24C24.1532 20.24 23.2866 20.06 22.5399 19.7C21.8066 19.34 21.2266 18.8267 20.7999 18.16C20.3866 17.4933 20.1732 16.7 20.1599 15.78H22.3999C22.4132 16.4867 22.6532 17.0933 23.1199 17.6C23.5999 18.0933 24.2666 18.34 25.1199 18.34C25.9066 18.34 26.5199 18.16 26.9599 17.8C27.3999 17.4267 27.6199 16.9467 27.6199 16.36C27.6199 15.8667 27.4866 15.46 27.2199 15.14C26.9666 14.8067 26.5666 14.5133 26.0199 14.26C25.4732 13.9933 24.7666 13.72 23.8999 13.44C22.7399 13.0667 21.8866 12.5533 21.3399 11.9C20.7932 11.2333 20.5199 10.42 20.5199 9.46001C20.5199 8.35334 20.9199 7.46001 21.7199 6.78001C22.5199 6.10001 23.6199 5.76001 25.0199 5.76001C26.3799 5.76001 27.4732 6.11334 28.2999 6.82001C29.1266 7.51334 29.5532 8.48001 29.5799 9.72001H27.3199C27.3199 9.38668 27.2266 9.06668 27.0399 8.76001C26.8532 8.44001 26.5866 8.18001 26.2399 7.98001C25.8932 7.76668 25.4666 7.66001 24.9599 7.66001C24.3332 7.64668 23.8066 7.80001 23.3799 8.12001C22.9532 8.42668 22.7399 8.84668 22.7399 9.38001C22.7399 10.0333 22.9999 10.5467 23.5199 10.92C24.0399 11.28 24.8866 11.6533 26.0599 12.04C26.7932 12.28 27.4399 12.5733 27.9999 12.92C28.5732 13.2533 29.0199 13.6867 29.3399 14.22C29.6732 14.74 29.8399 15.4067 29.8399 16.22C29.8399 16.9667 29.6532 17.6467 29.2799 18.26C28.9066 18.86 28.3666 19.34 27.6599 19.7C26.9666 20.06 26.1266 20.24 25.1399 20.24Z"/>
<path d="M36.4121 20V6.00001H41.1521C42.2188 6.00001 43.0988 6.18668 43.7921 6.56001C44.4854 6.92001 44.9988 7.42001 45.3321 8.06001C45.6654 8.70001 45.8321 9.43334 45.8321 10.26C45.8321 11.0867 45.6654 11.82 45.3321 12.46C44.9988 13.1 44.4854 13.6067 43.7921 13.98C43.0988 14.34 42.2188 14.52 41.1521 14.52H38.5321V20H36.4121ZM38.5321 12.62H41.0521C41.9588 12.62 42.6188 12.4067 43.0321 11.98C43.4588 11.5533 43.6721 10.98 43.6721 10.26C43.6721 9.55334 43.4588 8.98668 43.0321 8.56001C42.6188 8.12001 41.9588 7.90001 41.0521 7.90001H38.5321V12.62Z"/>
<path d="M56.9843 20.24C55.851 20.24 54.871 19.9467 54.0443 19.36C53.2176 18.7733 52.5843 17.94 52.1443 16.86C51.7043 15.78 51.4843 14.4933 51.4843 13C51.4843 11.5067 51.7043 10.22 52.1443 9.14001C52.5843 8.06001 53.2176 7.22668 54.0443 6.64001C54.871 6.05334 55.851 5.76001 56.9843 5.76001C58.131 5.76001 59.111 6.05334 59.9243 6.64001C60.751 7.22668 61.3843 8.06001 61.8243 9.14001C62.2643 10.22 62.4843 11.5067 62.4843 13C62.4843 14.4933 62.2643 15.78 61.8243 16.86C61.3843 17.94 60.751 18.7733 59.9243 19.36C59.111 19.9467 58.131 20.24 56.9843 20.24ZM56.9843 18.24C57.9843 18.24 58.791 17.7933 59.4043 16.9C60.0176 15.9933 60.3243 14.6933 60.3243 13C60.3243 11.3067 60.0176 10.0133 59.4043 9.12001C58.791 8.21334 57.9843 7.76001 56.9843 7.76001C55.971 7.76001 55.1576 8.21334 54.5443 9.12001C53.9443 10.0133 53.6443 11.3067 53.6443 13C53.6443 14.6933 53.9443 15.9933 54.5443 16.9C55.1576 17.7933 55.971 18.24 56.9843 18.24Z"/>
<path d="M71.9165 20V7.90001H68.1565V6.00001H77.7965V7.90001H74.0365V20H71.9165Z"/>
<path d="M89.1087 20.24C88.122 20.24 87.2553 20.06 86.5087 19.7C85.7753 19.34 85.1953 18.8267 84.7687 18.16C84.3553 17.4933 84.142 16.7 84.1287 15.78H86.3687C86.382 16.4867 86.622 17.0933 87.0887 17.6C87.5687 18.0933 88.2353 18.34 89.0887 18.34C89.8753 18.34 90.4887 18.16 90.9287 17.8C91.3687 17.4267 91.5887 16.9467 91.5887 16.36C91.5887 15.8667 91.4553 15.46 91.1887 15.14C90.9353 14.8067 90.5353 14.5133 89.9887 14.26C89.442 13.9933 88.7353 13.72 87.8687 13.44C86.7087 13.0667 85.8553 12.5533 85.3087 11.9C84.762 11.2333 84.4887 10.42 84.4887 9.46001C84.4887 8.35334 84.8887 7.46001 85.6887 6.78001C86.4887 6.10001 87.5887 5.76001 88.9887 5.76001C90.3487 5.76001 91.442 6.11334 92.2687 6.82001C93.0953 7.51334 93.522 8.48001 93.5487 9.72001H91.2887C91.2887 9.38668 91.1953 9.06668 91.0087 8.76001C90.822 8.44001 90.5553 8.18001 90.2087 7.98001C89.862 7.76668 89.4353 7.66001 88.9287 7.66001C88.302 7.64668 87.7753 7.80001 87.3487 8.12001C86.922 8.42668 86.7087 8.84668 86.7087 9.38001C86.7087 10.0333 86.9687 10.5467 87.4887 10.92C88.0087 11.28 88.8553 11.6533 90.0287 12.04C90.762 12.28 91.4087 12.5733 91.9687 12.92C92.542 13.2533 92.9887 13.6867 93.3087 14.22C93.642 14.74 93.8087 15.4067 93.8087 16.22C93.8087 16.9667 93.622 17.6467 93.2487 18.26C92.8753 18.86 92.3353 19.34 91.6287 19.7C90.9353 20.06 90.0953 20.24 89.1087 20.24Z"/>
</mask>
<path d="M25.1399 20.24C24.1532 20.24 23.2866 20.06 22.5399 19.7C21.8066 19.34 21.2266 18.8267 20.7999 18.16C20.3866 17.4933 20.1732 16.7 20.1599 15.78H22.3999C22.4132 16.4867 22.6532 17.0933 23.1199 17.6C23.5999 18.0933 24.2666 18.34 25.1199 18.34C25.9066 18.34 26.5199 18.16 26.9599 17.8C27.3999 17.4267 27.6199 16.9467 27.6199 16.36C27.6199 15.8667 27.4866 15.46 27.2199 15.14C26.9666 14.8067 26.5666 14.5133 26.0199 14.26C25.4732 13.9933 24.7666 13.72 23.8999 13.44C22.7399 13.0667 21.8866 12.5533 21.3399 11.9C20.7932 11.2333 20.5199 10.42 20.5199 9.46001C20.5199 8.35334 20.9199 7.46001 21.7199 6.78001C22.5199 6.10001 23.6199 5.76001 25.0199 5.76001C26.3799 5.76001 27.4732 6.11334 28.2999 6.82001C29.1266 7.51334 29.5532 8.48001 29.5799 9.72001H27.3199C27.3199 9.38668 27.2266 9.06668 27.0399 8.76001C26.8532 8.44001 26.5866 8.18001 26.2399 7.98001C25.8932 7.76668 25.4666 7.66001 24.9599 7.66001C24.3332 7.64668 23.8066 7.80001 23.3799 8.12001C22.9532 8.42668 22.7399 8.84668 22.7399 9.38001C22.7399 10.0333 22.9999 10.5467 23.5199 10.92C24.0399 11.28 24.8866 11.6533 26.0599 12.04C26.7932 12.28 27.4399 12.5733 27.9999 12.92C28.5732 13.2533 29.0199 13.6867 29.3399 14.22C29.6732 14.74 29.8399 15.4067 29.8399 16.22C29.8399 16.9667 29.6532 17.6467 29.2799 18.26C28.9066 18.86 28.3666 19.34 27.6599 19.7C26.9666 20.06 26.1266 20.24 25.1399 20.24Z" fill="#212121"/>
<path d="M36.4121 20V6.00001H41.1521C42.2188 6.00001 43.0988 6.18668 43.7921 6.56001C44.4854 6.92001 44.9988 7.42001 45.3321 8.06001C45.6654 8.70001 45.8321 9.43334 45.8321 10.26C45.8321 11.0867 45.6654 11.82 45.3321 12.46C44.9988 13.1 44.4854 13.6067 43.7921 13.98C43.0988 14.34 42.2188 14.52 41.1521 14.52H38.5321V20H36.4121ZM38.5321 12.62H41.0521C41.9588 12.62 42.6188 12.4067 43.0321 11.98C43.4588 11.5533 43.6721 10.98 43.6721 10.26C43.6721 9.55334 43.4588 8.98668 43.0321 8.56001C42.6188 8.12001 41.9588 7.90001 41.0521 7.90001H38.5321V12.62Z" fill="#212121"/>
<path d="M56.9843 20.24C55.851 20.24 54.871 19.9467 54.0443 19.36C53.2176 18.7733 52.5843 17.94 52.1443 16.86C51.7043 15.78 51.4843 14.4933 51.4843 13C51.4843 11.5067 51.7043 10.22 52.1443 9.14001C52.5843 8.06001 53.2176 7.22668 54.0443 6.64001C54.871 6.05334 55.851 5.76001 56.9843 5.76001C58.131 5.76001 59.111 6.05334 59.9243 6.64001C60.751 7.22668 61.3843 8.06001 61.8243 9.14001C62.2643 10.22 62.4843 11.5067 62.4843 13C62.4843 14.4933 62.2643 15.78 61.8243 16.86C61.3843 17.94 60.751 18.7733 59.9243 19.36C59.111 19.9467 58.131 20.24 56.9843 20.24ZM56.9843 18.24C57.9843 18.24 58.791 17.7933 59.4043 16.9C60.0176 15.9933 60.3243 14.6933 60.3243 13C60.3243 11.3067 60.0176 10.0133 59.4043 9.12001C58.791 8.21334 57.9843 7.76001 56.9843 7.76001C55.971 7.76001 55.1576 8.21334 54.5443 9.12001C53.9443 10.0133 53.6443 11.3067 53.6443 13C53.6443 14.6933 53.9443 15.9933 54.5443 16.9C55.1576 17.7933 55.971 18.24 56.9843 18.24Z" fill="#212121"/>
<path d="M71.9165 20V7.90001H68.1565V6.00001H77.7965V7.90001H74.0365V20H71.9165Z" fill="#212121"/>
<path d="M89.1087 20.24C88.122 20.24 87.2553 20.06 86.5087 19.7C85.7753 19.34 85.1953 18.8267 84.7687 18.16C84.3553 17.4933 84.142 16.7 84.1287 15.78H86.3687C86.382 16.4867 86.622 17.0933 87.0887 17.6C87.5687 18.0933 88.2353 18.34 89.0887 18.34C89.8753 18.34 90.4887 18.16 90.9287 17.8C91.3687 17.4267 91.5887 16.9467 91.5887 16.36C91.5887 15.8667 91.4553 15.46 91.1887 15.14C90.9353 14.8067 90.5353 14.5133 89.9887 14.26C89.442 13.9933 88.7353 13.72 87.8687 13.44C86.7087 13.0667 85.8553 12.5533 85.3087 11.9C84.762 11.2333 84.4887 10.42 84.4887 9.46001C84.4887 8.35334 84.8887 7.46001 85.6887 6.78001C86.4887 6.10001 87.5887 5.76001 88.9887 5.76001C90.3487 5.76001 91.442 6.11334 92.2687 6.82001C93.0953 7.51334 93.522 8.48001 93.5487 9.72001H91.2887C91.2887 9.38668 91.1953 9.06668 91.0087 8.76001C90.822 8.44001 90.5553 8.18001 90.2087 7.98001C89.862 7.76668 89.4353 7.66001 88.9287 7.66001C88.302 7.64668 87.7753 7.80001 87.3487 8.12001C86.922 8.42668 86.7087 8.84668 86.7087 9.38001C86.7087 10.0333 86.9687 10.5467 87.4887 10.92C88.0087 11.28 88.8553 11.6533 90.0287 12.04C90.762 12.28 91.4087 12.5733 91.9687 12.92C92.542 13.2533 92.9887 13.6867 93.3087 14.22C93.642 14.74 93.8087 15.4067 93.8087 16.22C93.8087 16.9667 93.622 17.6467 93.2487 18.26C92.8753 18.86 92.3353 19.34 91.6287 19.7C90.9353 20.06 90.0953 20.24 89.1087 20.24Z" fill="#212121"/>
<path d="M25.1399 20.24C24.1532 20.24 23.2866 20.06 22.5399 19.7C21.8066 19.34 21.2266 18.8267 20.7999 18.16C20.3866 17.4933 20.1732 16.7 20.1599 15.78H22.3999C22.4132 16.4867 22.6532 17.0933 23.1199 17.6C23.5999 18.0933 24.2666 18.34 25.1199 18.34C25.9066 18.34 26.5199 18.16 26.9599 17.8C27.3999 17.4267 27.6199 16.9467 27.6199 16.36C27.6199 15.8667 27.4866 15.46 27.2199 15.14C26.9666 14.8067 26.5666 14.5133 26.0199 14.26C25.4732 13.9933 24.7666 13.72 23.8999 13.44C22.7399 13.0667 21.8866 12.5533 21.3399 11.9C20.7932 11.2333 20.5199 10.42 20.5199 9.46001C20.5199 8.35334 20.9199 7.46001 21.7199 6.78001C22.5199 6.10001 23.6199 5.76001 25.0199 5.76001C26.3799 5.76001 27.4732 6.11334 28.2999 6.82001C29.1266 7.51334 29.5532 8.48001 29.5799 9.72001H27.3199C27.3199 9.38668 27.2266 9.06668 27.0399 8.76001C26.8532 8.44001 26.5866 8.18001 26.2399 7.98001C25.8932 7.76668 25.4666 7.66001 24.9599 7.66001C24.3332 7.64668 23.8066 7.80001 23.3799 8.12001C22.9532 8.42668 22.7399 8.84668 22.7399 9.38001C22.7399 10.0333 22.9999 10.5467 23.5199 10.92C24.0399 11.28 24.8866 11.6533 26.0599 12.04C26.7932 12.28 27.4399 12.5733 27.9999 12.92C28.5732 13.2533 29.0199 13.6867 29.3399 14.22C29.6732 14.74 29.8399 15.4067 29.8399 16.22C29.8399 16.9667 29.6532 17.6467 29.2799 18.26C28.9066 18.86 28.3666 19.34 27.6599 19.7C26.9666 20.06 26.1266 20.24 25.1399 20.24Z" stroke="#212121" stroke-width="0.4" mask="url(#path-1-outside-1_2_219)"/>
<path d="M36.4121 20V6.00001H41.1521C42.2188 6.00001 43.0988 6.18668 43.7921 6.56001C44.4854 6.92001 44.9988 7.42001 45.3321 8.06001C45.6654 8.70001 45.8321 9.43334 45.8321 10.26C45.8321 11.0867 45.6654 11.82 45.3321 12.46C44.9988 13.1 44.4854 13.6067 43.7921 13.98C43.0988 14.34 42.2188 14.52 41.1521 14.52H38.5321V20H36.4121ZM38.5321 12.62H41.0521C41.9588 12.62 42.6188 12.4067 43.0321 11.98C43.4588 11.5533 43.6721 10.98 43.6721 10.26C43.6721 9.55334 43.4588 8.98668 43.0321 8.56001C42.6188 8.12001 41.9588 7.90001 41.0521 7.90001H38.5321V12.62Z" stroke="#212121" stroke-width="0.4" mask="url(#path-1-outside-1_2_219)"/>
<path d="M56.9843 20.24C55.851 20.24 54.871 19.9467 54.0443 19.36C53.2176 18.7733 52.5843 17.94 52.1443 16.86C51.7043 15.78 51.4843 14.4933 51.4843 13C51.4843 11.5067 51.7043 10.22 52.1443 9.14001C52.5843 8.06001 53.2176 7.22668 54.0443 6.64001C54.871 6.05334 55.851 5.76001 56.9843 5.76001C58.131 5.76001 59.111 6.05334 59.9243 6.64001C60.751 7.22668 61.3843 8.06001 61.8243 9.14001C62.2643 10.22 62.4843 11.5067 62.4843 13C62.4843 14.4933 62.2643 15.78 61.8243 16.86C61.3843 17.94 60.751 18.7733 59.9243 19.36C59.111 19.9467 58.131 20.24 56.9843 20.24ZM56.9843 18.24C57.9843 18.24 58.791 17.7933 59.4043 16.9C60.0176 15.9933 60.3243 14.6933 60.3243 13C60.3243 11.3067 60.0176 10.0133 59.4043 9.12001C58.791 8.21334 57.9843 7.76001 56.9843 7.76001C55.971 7.76001 55.1576 8.21334 54.5443 9.12001C53.9443 10.0133 53.6443 11.3067 53.6443 13C53.6443 14.6933 53.9443 15.9933 54.5443 16.9C55.1576 17.7933 55.971 18.24 56.9843 18.24Z" stroke="#212121" stroke-width="0.4" mask="url(#path-1-outside-1_2_219)"/>
<path d="M71.9165 20V7.90001H68.1565V6.00001H77.7965V7.90001H74.0365V20H71.9165Z" stroke="#212121" stroke-width="0.4" mask="url(#path-1-outside-1_2_219)"/>
<path d="M89.1087 20.24C88.122 20.24 87.2553 20.06 86.5087 19.7C85.7753 19.34 85.1953 18.8267 84.7687 18.16C84.3553 17.4933 84.142 16.7 84.1287 15.78H86.3687C86.382 16.4867 86.622 17.0933 87.0887 17.6C87.5687 18.0933 88.2353 18.34 89.0887 18.34C89.8753 18.34 90.4887 18.16 90.9287 17.8C91.3687 17.4267 91.5887 16.9467 91.5887 16.36C91.5887 15.8667 91.4553 15.46 91.1887 15.14C90.9353 14.8067 90.5353 14.5133 89.9887 14.26C89.442 13.9933 88.7353 13.72 87.8687 13.44C86.7087 13.0667 85.8553 12.5533 85.3087 11.9C84.762 11.2333 84.4887 10.42 84.4887 9.46001C84.4887 8.35334 84.8887 7.46001 85.6887 6.78001C86.4887 6.10001 87.5887 5.76001 88.9887 5.76001C90.3487 5.76001 91.442 6.11334 92.2687 6.82001C93.0953 7.51334 93.522 8.48001 93.5487 9.72001H91.2887C91.2887 9.38668 91.1953 9.06668 91.0087 8.76001C90.822 8.44001 90.5553 8.18001 90.2087 7.98001C89.862 7.76668 89.4353 7.66001 88.9287 7.66001C88.302 7.64668 87.7753 7.80001 87.3487 8.12001C86.922 8.42668 86.7087 8.84668 86.7087 9.38001C86.7087 10.0333 86.9687 10.5467 87.4887 10.92C88.0087 11.28 88.8553 11.6533 90.0287 12.04C90.762 12.28 91.4087 12.5733 91.9687 12.92C92.542 13.2533 92.9887 13.6867 93.3087 14.22C93.642 14.74 93.8087 15.4067 93.8087 16.22C93.8087 16.9667 93.622 17.6467 93.2487 18.26C92.8753 18.86 92.3353 19.34 91.6287 19.7C90.9353 20.06 90.0953 20.24 89.1087 20.24Z" stroke="#212121" stroke-width="0.4" mask="url(#path-1-outside-1_2_219)"/>
<path d="M6 4L6 12" stroke="#212121" stroke-width="2.5"/>
<path d="M1 9L6 13L11 9" stroke="#212121" stroke-width="2.5" stroke-linejoin="bevel"/>
<circle cx="6" cy="18" r="2" fill="#212121"/>
</svg>

<svg xmlns="http://www.w3.org/2000/svg" width="95" height="26" fill="none"><mask id="a" width="75" height="16" x="19.16" y="4.76" fill="#000" maskUnits="userSpaceOnUse"><path fill="#fff" d="M19.16 4.76h75v16h-75z"/><path d="M25.14 20.24q-1.48 0-2.6-.54a4.24 4.24 0 0 1-1.74-1.54q-.62-1-.64-2.38h2.24q.02 1.06.72 1.82.72.74 2 .74 1.18 0 1.84-.54.66-.56.66-1.44 0-.74-.4-1.22-.38-.5-1.2-.88-.82-.4-2.12-.82-1.74-.56-2.56-1.54-.82-1-.82-2.44 0-1.66 1.2-2.68t3.3-1.02q2.04 0 3.28 1.06 1.24 1.04 1.28 2.9h-2.26a1.8 1.8 0 0 0-.28-.96 2.14 2.14 0 0 0-.8-.78q-.52-.32-1.28-.32-.94-.02-1.58.46-.64.46-.64 1.26 0 .98.78 1.54.78.54 2.54 1.12a9 9 0 0 1 1.94.88 3.7 3.7 0 0 1 1.34 1.3q.5.78.5 2 0 1.12-.56 2.04-.56.9-1.62 1.44-1.04.54-2.52.54M36.412 20V6h4.74q1.6 0 2.64.56 1.04.54 1.54 1.5t.5 2.2-.5 2.2-1.54 1.52q-1.04.54-2.64.54h-2.62V20zm2.12-7.38h2.52q1.36 0 1.98-.64.64-.64.64-1.72 0-1.06-.64-1.7-.62-.66-1.98-.66h-2.52zM56.984 20.24q-1.7 0-2.94-.88t-1.9-2.5-.66-3.86.66-3.86 1.9-2.5 2.94-.88q1.72 0 2.94.88 1.24.88 1.9 2.5t.66 3.86-.66 3.86-1.9 2.5q-1.22.88-2.94.88m0-2q1.5 0 2.42-1.34.92-1.36.92-3.9t-.92-3.88q-.92-1.36-2.42-1.36-1.52 0-2.44 1.36-.9 1.34-.9 3.88t.9 3.9q.92 1.34 2.44 1.34M71.917 20V7.9h-3.76V6h9.64v1.9h-3.76V20zM89.109 20.24q-1.48 0-2.6-.54a4.24 4.24 0 0 1-1.74-1.54q-.62-1-.64-2.38h2.24q.02 1.06.72 1.82.72.74 2 .74 1.18 0 1.84-.54.66-.56.66-1.44 0-.74-.4-1.22-.381-.5-1.2-.88-.82-.4-2.12-.82-1.74-.56-2.56-1.54-.82-1-.82-2.44 0-1.66 1.2-2.68t3.3-1.02q2.04 0 3.28 1.06 1.24 1.04 1.28 2.9h-2.26a1.8 1.8 0 0 0-.28-.96 2.14 2.14 0 0 0-.8-.78q-.52-.32-1.28-.32-.94-.02-1.58.46-.64.46-.64 1.26 0 .98.78 1.54.78.54 2.54 1.12a9 9 0 0 1 1.94.88 3.7 3.7 0 0 1 1.34 1.3q.5.78.5 2 0 1.12-.56 2.04-.561.9-1.62 1.44-1.041.54-2.52.54"/></mask><path fill="#212121" d="M25.14 20.24q-1.48 0-2.6-.54a4.24 4.24 0 0 1-1.74-1.54q-.62-1-.64-2.38h2.24q.02 1.06.72 1.82.72.74 2 .74 1.18 0 1.84-.54.66-.56.66-1.44 0-.74-.4-1.22-.38-.5-1.2-.88-.82-.4-2.12-.82-1.74-.56-2.56-1.54-.82-1-.82-2.44 0-1.66 1.2-2.68t3.3-1.02q2.04 0 3.28 1.06 1.24 1.04 1.28 2.9h-2.26a1.8 1.8 0 0 0-.28-.96 2.14 2.14 0 0 0-.8-.78q-.52-.32-1.28-.32-.94-.02-1.58.46-.64.46-.64 1.26 0 .98.78 1.54.78.54 2.54 1.12a9 9 0 0 1 1.94.88 3.7 3.7 0 0 1 1.34 1.3q.5.78.5 2 0 1.12-.56 2.04-.56.9-1.62 1.44-1.04.54-2.52.54M36.412 20V6h4.74q1.6 0 2.64.56 1.04.54 1.54 1.5t.5 2.2-.5 2.2-1.54 1.52q-1.04.54-2.64.54h-2.62V20zm2.12-7.38h2.52q1.36 0 1.98-.64.64-.64.64-1.72 0-1.06-.64-1.7-.62-.66-1.98-.66h-2.52zM56.984 20.24q-1.7 0-2.94-.88t-1.9-2.5-.66-3.86.66-3.86 1.9-2.5 2.94-.88q1.72 0 2.94.88 1.24.88 1.9 2.5t.66 3.86-.66 3.86-1.9 2.5q-1.22.88-2.94.88m0-2q1.5 0 2.42-1.34.92-1.36.92-3.9t-.92-3.88q-.92-1.36-2.42-1.36-1.52 0-2.44 1.36-.9 1.34-.9 3.88t.9 3.9q.92 1.34 2.44 1.34M71.917 20V7.9h-3.76V6h9.64v1.9h-3.76V20zM89.109 20.24q-1.48 0-2.6-.54a4.24 4.24 0 0 1-1.74-1.54q-.62-1-.64-2.38h2.24q.02 1.06.72 1.82.72.74 2 .74 1.18 0 1.84-.54.66-.56.66-1.44 0-.74-.4-1.22-.381-.5-1.2-.88-.82-.4-2.12-.82-1.74-.56-2.56-1.54-.82-1-.82-2.44 0-1.66 1.2-2.68t3.3-1.02q2.04 0 3.28 1.06 1.24 1.04 1.28 2.9h-2.26a1.8 1.8 0 0 0-.28-.96 2.14 2.14 0 0 0-.8-.78q-.52-.32-1.28-.32-.94-.02-1.58.46-.64.46-.64 1.26 0 .98.78 1.54.78.54 2.54 1.12a9 9 0 0 1 1.94.88 3.7 3.7 0 0 1 1.34 1.3q.5.78.5 2 0 1.12-.56 2.04-.561.9-1.62 1.44-1.041.54-2.52.54"/><path stroke="#212121" stroke-width=".4" d="M25.14 20.24q-1.48 0-2.6-.54a4.24 4.24 0 0 1-1.74-1.54q-.62-1-.64-2.38h2.24q.02 1.06.72 1.82.72.74 2 .74 1.18 0 1.84-.54.66-.56.66-1.44 0-.74-.4-1.22-.38-.5-1.2-.88-.82-.4-2.12-.82-1.74-.56-2.56-1.54-.82-1-.82-2.44 0-1.66 1.2-2.68t3.3-1.02q2.04 0 3.28 1.06 1.24 1.04 1.28 2.9h-2.26a1.8 1.8 0 0 0-.28-.96 2.14 2.14 0 0 0-.8-.78q-.52-.32-1.28-.32-.94-.02-1.58.46-.64.46-.64 1.26 0 .98.78 1.54.78.54 2.54 1.12a9 9 0 0 1 1.94.88 3.7 3.7 0 0 1 1.34 1.3q.5.78.5 2 0 1.12-.56 2.04-.56.9-1.62 1.44-1.04.54-2.52.54ZM36.412 20V6h4.74q1.6 0 2.64.56 1.04.54 1.54 1.5t.5 2.2-.5 2.2-1.54 1.52q-1.04.54-2.64.54h-2.62V20zm2.12-7.38h2.52q1.36 0 1.98-.64.64-.64.64-1.72 0-1.06-.64-1.7-.62-.66-1.98-.66h-2.52zM56.984 20.24q-1.7 0-2.94-.88t-1.9-2.5-.66-3.86.66-3.86 1.9-2.5 2.94-.88q1.72 0 2.94.88 1.24.88 1.9 2.5t.66 3.86-.66 3.86-1.9 2.5q-1.22.88-2.94.88Zm0-2q1.5 0 2.42-1.34.92-1.36.92-3.9t-.92-3.88q-.92-1.36-2.42-1.36-1.52 0-2.44 1.36-.9 1.34-.9 3.88t.9 3.9q.92 1.34 2.44 1.34ZM71.917 20V7.9h-3.76V6h9.64v1.9h-3.76V20zM89.109 20.24q-1.48 0-2.6-.54a4.24 4.24 0 0 1-1.74-1.54q-.62-1-.64-2.38h2.24q.02 1.06.72 1.82.72.74 2 .74 1.18 0 1.84-.54.66-.56.66-1.44 0-.74-.4-1.22-.381-.5-1.2-.88-.82-.4-2.12-.82-1.74-.56-2.56-1.54-.82-1-.82-2.44 0-1.66 1.2-2.68t3.3-1.02q2.04 0 3.28 1.06 1.24 1.04 1.28 2.9h-2.26a1.8 1.8 0 0 0-.28-.96 2.14 2.14 0 0 0-.8-.78q-.52-.32-1.28-.32-.94-.02-1.58.46-.64.46-.64 1.26 0 .98.78 1.54.78.54 2.54 1.12a9 9 0 0 1 1.94.88 3.7 3.7 0 0 1 1.34 1.3q.5.78.5 2 0 1.12-.56 2.04-.561.9-1.62 1.44-1.041.54-2.52.54Z" mask="url(#a)"/><path stroke="#212121" stroke-width="2.5" d="M6 4v8"/><path stroke="#212121" stroke-linejoin="bevel" stroke-width="2.5" d="m1 9 5 4 5-4"/><circle cx="6" cy="18" r="2" fill="#212121"/></svg>
